public/cog-icon.svg

<svg width="24" height="24" viewBox="0 0 24 24" fill="none" xmlns="http://www.w3.org/2000/svg">
<path d="M15 12C15 13.6569 13.6569 15 12 15C10.3431 15 9 13.6569 9 12C9 10.3431 10.3431 9 12 9C13.6569 9 15 10.3431 15 12Z" stroke="black" stroke-width="2" stroke-linecap="round" stroke-linejoin="round"/>
<path d="M12.9046 3.06005C12.6988 3 12.4659 3 12 3C11.5341 3 11.3012 3 11.0954 3.06005C10.7942 3.14794 10.5281 3.32808 10.3346 3.57511C10.2024 3.74388 10.1159 3.96016 9.94291 4.39272C9.69419 5.01452 9.00393 5.33471 8.36857 5.123L7.79779 4.93281C7.3929 4.79785 7.19045 4.73036 6.99196 4.7188C6.70039 4.70181 6.4102 4.77032 6.15701 4.9159C5.98465 5.01501 5.83376 5.16591 5.53197 5.4677C5.21122 5.78845 5.05084 5.94882 4.94896 6.13189C4.79927 6.40084 4.73595 6.70934 4.76759 7.01551C4.78912 7.2239 4.87335 7.43449 5.04182 7.85566C5.30565 8.51523 5.05184 9.26878 4.44272 9.63433L4.16521 9.80087C3.74031 10.0558 3.52786 10.1833 3.37354 10.3588C3.23698 10.5141 3.13401 10.696 3.07109 10.893C3 11.1156 3 11.3658 3 11.8663C3 12.4589 3 12.7551 3.09462 13.0088C3.17823 13.2329 3.31422 13.4337 3.49124 13.5946C3.69158 13.7766 3.96395 13.8856 4.50866 14.1035C5.06534 14.3261 5.35196 14.9441 5.16236 15.5129L4.94721 16.1584C4.79819 16.6054 4.72367 16.829 4.7169 17.0486C4.70875 17.3127 4.77049 17.5742 4.89587 17.8067C5.00015 18.0002 5.16678 18.1668 5.5 18.5C5.83323 18.8332 5.99985 18.9998 6.19325 19.1041C6.4258 19.2295 6.68733 19.2913 6.9514 19.2831C7.17102 19.2763 7.39456 19.2018 7.84164 19.0528L8.36862 18.8771C9.00393 18.6654 9.6942 18.9855 9.94291 19.6073C10.1159 20.0398 10.2024 20.2561 10.3346 20.4249C10.5281 20.6719 10.7942 20.8521 11.0954 20.94C11.3012 21 11.5341 21 12 21C12.4659 21 12.6988 21 12.9046 20.94C13.2058 20.8521 13.4719 20.6719 13.6654 20.4249C13.7976 20.2561 13.8841 20.0398 14.0571 19.6073C14.3058 18.9855 14.9961 18.6654 15.6313 18.8773L16.1579 19.0529C16.605 19.2019 16.8286 19.2764 17.0482 19.2832C17.3123 19.2913 17.5738 19.2296 17.8063 19.1042C17.9997 18.9999 18.1664 18.8333 18.4996 18.5001C18.8328 18.1669 18.9994 18.0002 19.1037 17.8068C19.2291 17.5743 19.2908 17.3127 19.2827 17.0487C19.2759 16.8291 19.2014 16.6055 19.0524 16.1584L18.8374 15.5134C18.6477 14.9444 18.9344 14.3262 19.4913 14.1035C20.036 13.8856 20.3084 13.7766 20.5088 13.5946C20.6858 13.4337 20.8218 13.2329 20.9054 13.0088C21 12.7551 21 12.4589 21 11.8663C21 11.3658 21 11.1156 20.9289 10.893C20.866 10.696 20.763 10.5141 20.6265 10.3588C20.4721 10.1833 20.2597 10.0558 19.8348 9.80087L19.5569 9.63416C18.9478 9.26867 18.6939 8.51514 18.9578 7.85558C19.1262 7.43443 19.2105 7.22383 19.232 7.01543C19.2636 6.70926 19.2003 6.40077 19.0506 6.13181C18.9487 5.94875 18.7884 5.78837 18.4676 5.46762C18.1658 5.16584 18.0149 5.01494 17.8426 4.91583C17.5894 4.77024 17.2992 4.70174 17.0076 4.71872C16.8091 4.73029 16.6067 4.79777 16.2018 4.93273L15.6314 5.12287C14.9961 5.33464 14.3058 5.0145 14.0571 4.39272C13.8841 3.96016 13.7976 3.74388 13.6654 3.57511C13.4719 3.32808 13.2058 3.14794 12.9046 3.06005Z" stroke="black" stroke-width="2" stroke-linecap="round" stroke-linejoin="round"/>
</svg>

<svg xmlns="http://www.w3.org/2000/svg" width="24" height="24" fill="none" viewBox="0 0 24 24"><path stroke="#000" stroke-linecap="round" stroke-linejoin="round" stroke-width="2" d="M15 12a3 3 0 1 1-6 0 3 3 0 0 1 6 0"/><path stroke="#000" stroke-linecap="round" stroke-linejoin="round" stroke-width="2" d="M12.905 3.06C12.699 3 12.465 3 12 3c-.466 0-.699 0-.905.06a1.5 1.5 0 0 0-.76.515c-.133.169-.22.385-.392.818a1.265 1.265 0 0 1-1.574.73l-.571-.19c-.405-.135-.608-.203-.806-.214a1.5 1.5 0 0 0-.835.197c-.172.099-.323.25-.625.552-.32.32-.481.48-.583.664a1.5 1.5 0 0 0-.181.884c.021.208.105.418.274.84.264.66.01 1.413-.6 1.778l-.277.167c-.425.255-.637.382-.791.558a1.5 1.5 0 0 0-.303.534C3 11.116 3 11.366 3 11.866c0 .593 0 .89.095 1.143a1.5 1.5 0 0 0 .396.586c.2.182.473.29 1.018.508.556.223.843.841.653 1.41l-.215.645c-.149.447-.223.671-.23.89a1.5 1.5 0 0 0 .179.759c.104.193.27.36.604.693s.5.5.693.604a1.5 1.5 0 0 0 .758.18c.22-.008.444-.082.89-.231l.528-.176a1.265 1.265 0 0 1 1.574.73c.173.433.26.65.392.818a1.5 1.5 0 0 0 .76.515c.206.06.44.06.905.06.466 0 .699 0 .905-.06a1.5 1.5 0 0 0 .76-.515c.133-.169.22-.385.392-.818a1.265 1.265 0 0 1 1.574-.73l.527.176c.447.149.67.223.89.23a1.5 1.5 0 0 0 .758-.179c.194-.104.36-.27.694-.604s.5-.5.604-.693a1.5 1.5 0 0 0 .179-.758c-.007-.22-.082-.444-.23-.89l-.216-.646a1.133 1.133 0 0 1 .654-1.41c.545-.217.817-.326 1.018-.508a1.5 1.5 0 0 0 .396-.586c.095-.254.095-.55.095-1.143 0-.5 0-.75-.071-.973a1.5 1.5 0 0 0-.302-.534c-.155-.176-.367-.303-.792-.558l-.278-.167a1.45 1.45 0 0 1-.6-1.778c.17-.422.253-.632.275-.84a1.5 1.5 0 0 0-.181-.884c-.102-.183-.263-.344-.583-.664-.302-.302-.453-.453-.625-.552a1.5 1.5 0 0 0-.835-.197c-.199.011-.401.079-.806.214l-.57.19a1.265 1.265 0 0 1-1.575-.73c-.173-.433-.26-.65-.392-.818a1.5 1.5 0 0 0-.76-.515"/></svg>
